theme/chrome/browser/symbolic-icons/extensions/gtranslator.svg

<?xml version="1.0" encoding="UTF-8" standalone="no"?>
<!-- Created with Inkscape (http://www.inkscape.org/) -->

<svg xmlns:dc="http://purl.org/dc/elements/1.1/" xmlns:cc="http://creativecommons.org/ns#" xmlns:rdf="http://www.w3.org/1999/02/22-rdf-syntax-ns#" xmlns:svg="http://www.w3.org/2000/svg" xmlns="http://www.w3.org/2000/svg" xmlns:sodipodi="http://sodipodi.sourceforge.net/DTD/sodipodi-0.dtd" xmlns:inkscape="http://www.inkscape.org/namespaces/inkscape" width="16px" height="16px" id="svg3031" version="1.1" inkscape:version="0.48.3.1 r9886" sodipodi:docname="gtranslator.svg">
   <defs id="defs3033" />
   <sodipodi:namedview id="base" pagecolor="#ffffff" bordercolor="#666666" borderopacity="1.0" inkscape:pageopacity="0.0" inkscape:pageshadow="2" inkscape:zoom="45.254834" inkscape:cx="7.6062959" inkscape:cy="6.1576942" inkscape:current-layer="layer1" showgrid="true" inkscape:grid-bbox="true" inkscape:document-units="px" inkscape:window-width="1366" inkscape:window-height="741" inkscape:window-x="0" inkscape:window-y="-2" inkscape:window-maximized="1" inkscape:showpageshadow="false" showborder="true">
      <inkscape:grid type="xygrid" id="grid3039" empspacing="5" visible="true" enabled="true" snapvisiblegridlinesonly="true" />
   </sodipodi:namedview>
   <metadata id="metadata3036">
      <rdf:RDF>
         <cc:Work rdf:about="">
            <dc:format>image/svg+xml</dc:format>
            <dc:type rdf:resource="http://purl.org/dc/dcmitype/StillImage" />
            <dc:title />
         </cc:Work>
      </rdf:RDF>
   </metadata>
   <g id="layer1" inkscape:label="Layer 1" inkscape:groupmode="layer">
      <path style="font-size:10.73619652px;font-style:normal;font-variant:normal;font-weight:bold;font-stretch:normal;text-align:start;line-height:125%;letter-spacing:0px;word-spacing:0px;writing-mode:lr-tb;text-anchor:start;fill:#2e3436;fill-opacity:1;stroke:none;font-family:Source Sans Pro;-inkscape-font-specification:Source Sans Pro Bold" d="M 2.90625,1 C 1.8495713,1 1,1.892 1,3 l 0,10 c 0,1.108 0.8495713,2 1.90625,2 l 10.1875,0 C 14.150429,15 15,14.108 15,13 L 15,3 C 15,1.892 14.150429,1 13.09375,1 z M 5,2.3125 l 1,0 L 6,3 9,3 9,5 8,5 8,4 3,4 3,5 2,5 2,3 5,3 z M 4,5 7,5 7,6 6,7 8,7 8,8 6,8 6,8.3125 C 6,10 5,10 5,10 4,10 4.255141,10.010455 4,10 L 4,9 4.625,9 C 4.625,9 5,9 5,8 L 3,8 3,7 5,7 5,6.5 5.1875,6.5 6,6 4,6 z m 6,2 2,0 2,7 -1.46875,0 -0.5,-2 L 10,12 9.4375,14 8,14 z M 10.542188,8.9984375 10,11 12,11 11.528125,9 z M 3,11 4,11 4,12 4.21875,12 5.375,12 5.0625,11.65625 c -0.150357,-0.155996 -0.153207,-0.37804 0,-0.53125 0.153207,-0.153211 0.409296,-0.153211 0.5625,0 L 7,12.5 5.625,13.90625 c -0.153209,0.153209 -0.409298,0.153211 -0.5625,0 -0.153203,-0.153201 -0.150718,-0.406841 0,-0.5625 L 5.375,13 4.25,13 4,13 C 3,13 3,12 3,12 z" id="rect6030" inkscape:connector-curvature="0" sodipodi:nodetypes="sssssssssccccccccccccccccccccscccccccccccccccccccccccccccccccccscccccccscc" />
      <rect y="10" x="-15.000017" height="16" width="16" id="rect5386-2" style="fill:none;stroke:none;display:inline" />
      <g inkscape:label="status" id="layer9" style="display:inline" transform="translate(-83.738051,-646.61216)" />
      <g inkscape:label="devices" id="layer10" transform="translate(-83.738051,-646.61216)" />
      <g inkscape:label="apps" id="layer11" transform="translate(-83.738051,-646.61216)" />
      <g inkscape:label="places" id="layer13" transform="translate(-83.738051,-646.61216)" />
      <g inkscape:label="mimetypes" id="layer14" transform="translate(-83.738051,-646.61216)" />
      <g inkscape:label="emblems" id="layer15" style="display:inline" transform="translate(-83.738051,-646.61216)" />
      <g inkscape:label="emotes" style="display:inline" id="g71291" transform="translate(-83.738051,-646.61216)" />
      <g inkscape:label="categories" style="display:inline" id="g4953" transform="translate(-83.738051,-646.61216)" />
   </g>
</svg>

<?xml version="1.0" encoding="UTF-8" standalone="no"?>
<svg xmlns:inkscape="http://www.inkscape.org/namespaces/inkscape" xmlns:rdf="http://www.w3.org/1999/02/22-rdf-syntax-ns#" xmlns="http://www.w3.org/2000/svg" sodipodi:docname="gtranslator.svg" height="16px" width="16px" version="1.1" xmlns:cc="http://creativecommons.org/ns#" xmlns:dc="http://purl.org/dc/elements/1.1/" inkscape:version="0.48.3.1 r9886" xmlns:sodipodi="http://sodipodi.sourceforge.net/DTD/sodipodi-0.dtd">
<sodipodi:namedview bordercolor="#666666" inkscape:pageshadow="2" inkscape:window-y="-2" pagecolor="#ffffff" inkscape:window-height="741" inkscape:grid-bbox="true" inkscape:window-maximized="1" inkscape:zoom="45.254834" inkscape:window-x="0" showgrid="true" borderopacity="1.0" inkscape:current-layer="layer1" inkscape:cx="7.6062959" inkscape:cy="6.1576942" inkscape:showpageshadow="false" inkscape:window-width="1366" showborder="true" inkscape:pageopacity="0.0" inkscape:document-units="px">
<inkscape:grid enabled="true" visible="true" snapvisiblegridlinesonly="true" type="xygrid" empspacing="5"/>
</sodipodi:namedview>
<metadata>
<rdf:RDF>
<cc:Work rdf:about="">
<dc:format>image/svg+xml</dc:format>
<dc:type rdf:resource="http://purl.org/dc/dcmitype/StillImage"/>
<dc:title/>
</cc:Work>
</rdf:RDF>
</metadata>
<g inkscape:label="Layer 1" inkscape:groupmode="layer">
<path d="m2.9062 1c-1.0566 0-1.9062 0.892-1.9062 2v10c0 1.108 0.84957 2 1.9062 2h10.188c1.056 0 1.906-0.892 1.906-2v-10c0-1.108-0.85-2-1.906-2zm2.0938 1.3125h1v0.6875h3v2h-1v-1h-5v1h-1v-2h3zm-1 2.6875h3v1l-1 1h2v1h-2v0.3125c0 1.6875-1 1.6875-1 1.6875-1 0-0.7449 0.01-1 0v-1h0.625s0.375 0 0.375-1h-2v-1h2v-0.5h0.1875l0.8125-0.5h-2zm6 2h2l2 7h-1.4688l-0.5-2h-2.031l-0.5625 2h-1.4375zm0.542 1.9984-0.542 2.0016h2l-0.472-2zm-7.542 2.0016h1v1h0.2188 1.1562l-0.3125-0.344c-0.15036-0.156-0.15321-0.37804 0-0.53125s0.4093-0.15321 0.5625 0l1.375 1.375-1.375 1.406c-0.15321 0.15321-0.4093 0.15321-0.5625 0-0.1532-0.1532-0.15072-0.40684 0-0.5625l0.3125-0.344h-1.125-0.25c-1 0-1-1-1-1z" sodipodi:nodetypes="sssssssssccccccccccccccccccccscccccccccccccccccccccccccccccccccscccccccscc" inkscape:connector-curvature="0" fill="#2e3436"/>
<rect height="16" width="16" y="10" x="-15" fill="none"/>
</g>
</svg>
